X:15
T:Ashburnham 
R:
C:Bruce Osborne  --  Jan.6 1993
Z:abc by bosborne@kos.net
M:3/4
L:1/8
K:D
Ad|f3 g fe|d2 A2 F2|G2 D2 B,2|G,4 B,2|\
A,3 B, CD|E3 A, CE|D3 F AB|A4 Ad|\
f3 g fe|d2 A2 F2|G2 D2 B,2|G,4 B,2|\
A,3 B, CD|E3 A, CE|D3 C DE|D4||\
Ad|f3 g fe|d2 A2 F2|G3 A Bd|A4 Ad|\
f3 g fe|d2 A2 d2|c e4 f|e4 Ad|\
f3 g fe|d2 A2 F2|G3 A Bd|A4 F2|\
G3 A Bd|A2 d2 Ad|c3 d ec|d4||
